assets/Bicycle/Flat/bicycle_flat.svg

<svg width="32" height="32" viewBox="0 0 32 32" fill="none" xmlns="http://www.w3.org/2000/svg">
<path fill-rule="evenodd" clip-rule="evenodd" d="M12.5 24.5C12.5 27.2614 10.2614 29.5 7.5 29.5C4.73858 29.5 2.5 27.2614 2.5 24.5C2.5 21.7386 4.73858 19.5 7.5 19.5C10.2614 19.5 12.5 21.7386 12.5 24.5ZM11 24.5C11 26.433 9.433 28 7.5 28C5.567 28 4 26.433 4 24.5C4 22.567 5.56701 21 7.5 21C9.43299 21 11 22.567 11 24.5Z" fill="#F3EEF8"/>
<path fill-rule="evenodd" clip-rule="evenodd" d="M29.5 24.5C29.5 27.2614 27.2614 29.5 24.5 29.5C21.7386 29.5 19.5 27.2614 19.5 24.5C19.5 21.7386 21.7386 19.5 24.5 19.5C27.2614 19.5 29.5 21.7386 29.5 24.5ZM28 24.5C28 26.433 26.433 28 24.5 28C22.567 28 21 26.433 21 24.5C21 22.567 22.567 21 24.5 21C26.433 21 28 22.567 28 24.5Z" fill="#F3EEF8"/>
<path fill-rule="evenodd" clip-rule="evenodd" d="M12 24.5C12 26.9853 9.98528 29 7.5 29C5.01472 29 3 26.9853 3 24.5C3 22.0147 5.01472 20 7.5 20C9.98528 20 12 22.0147 12 24.5ZM7.5 30C10.5376 30 13 27.5376 13 24.5C13 21.4625 10.5376 19 7.5 19C4.46244 19 2 21.4625 2 24.5C2 27.5376 4.46244 30 7.5 30ZM29 24.5C29 26.9853 26.9853 29 24.5 29C22.0147 29 20 26.9853 20 24.5C20 22.0147 22.0147 20 24.5 20C26.9853 20 29 22.0147 29 24.5ZM24.5 30C27.5376 30 30 27.5376 30 24.5C30 21.4625 27.5376 19 24.5 19C21.4624 19 19 21.4625 19 24.5C19 27.5376 21.4624 30 24.5 30Z" fill="#321B41"/>
<path d="M14 9.5C14 9.22386 13.7761 9 13.5 9H11.5C10.1193 9 9 10.1193 9 11.5C9 12.8807 10.1193 14 11.5 14H11.6639L11.028 15.264C10.8977 15.5247 11.0033 15.8416 11.264 15.972C11.5247 16.1023 11.8417 15.9967 11.972 15.736L12.8453 14H13.5C13.7761 14 14 13.7761 14 13.5C14 13.2239 13.7761 13 13.5 13H11.5C10.6716 13 10 12.3284 10 11.5C10 10.6716 10.6716 10 11.5 10H13.5C13.7761 10 14 9.77614 14 9.5ZM20.1035 13.4825C20.3893 13.5397 20.5746 13.8177 20.5175 14.1035L20.0175 16.6035C19.9603 16.8892 19.6823 17.0746 19.3965 17.0174C19.1107 16.9603 18.9254 16.6823 18.9825 16.3965L19.4825 13.8965C19.5397 13.6107 19.8177 13.4254 20.1035 13.4825Z" fill="#D3D3D3"/>
<path d="M12.0305 15.7358C12.1606 15.4428 12.0287 15.0998 11.7358 14.9696C11.4428 14.8394 11.0998 14.9713 10.9696 15.2643L6.96961 24.2643C6.83941 24.5572 6.97134 24.9003 7.26429 25.0305C7.55723 25.1606 7.90025 25.0287 8.03045 24.7358L10.6429 18.8577L17.6374 24.4533C17.7975 24.5813 18.0131 24.6155 18.2049 24.5431C18.3966 24.4708 18.536 24.3027 18.5716 24.1009L19.7925 17.1829L24.0661 24.6678C24.225 24.9462 24.5795 25.043 24.8579 24.8841C25.1363 24.7251 25.2332 24.3706 25.0742 24.0922L20.0041 15.2122C19.8829 14.9999 19.6416 14.8863 19.4006 14.9282C19.1597 14.97 18.9709 15.1584 18.9284 15.3992L17.5985 22.9355L11.1304 17.761L12.0305 15.7358Z" fill="#F92F60"/>
<path d="M25.0955 23.4011L18.225 22.0177C17.0501 21.8587 16 22.7915 16 24C16 25.2085 17.0397 26.1413 18.225 25.9823L25.0955 25.5C25.6153 25.4258 26 24.9806 26 24.4506C26 23.9205 25.6049 23.4647 25.0955 23.4011Z" fill="#F9C23C"/>
<path d="M18 13C18 12.4477 18.4477 12 19 12H21C21.5523 12 22 12.4477 22 13V13C22 13.5523 21.5523 14 21 14H19C18.4477 14 18 13.5523 18 13V13Z" fill="#9D5044"/>
<path d="M12 9.5C12 9.22386 12.2239 9 12.5 9H14.5C14.7761 9 15 9.22386 15 9.5V9.5C15 9.77614 14.7761 10 14.5 10H12.5C12.2239 10 12 9.77614 12 9.5V9.5Z" fill="#533566"/>
<path d="M18 25C18.5523 25 19 24.5523 19 24C19 23.4477 18.5523 23 18 23C17.4477 23 17 23.4477 17 24C17 24.5523 17.4477 25 18 25Z" fill="#F4F4F4"/>
</svg>

<svg xmlns="http://www.w3.org/2000/svg" width="32" height="32" fill="none"><path fill="#F3EEF8" fill-rule="evenodd" d="M12.5 24.5a5 5 0 1 1-10 0 5 5 0 0 1 10 0Zm-1.5 0a3.5 3.5 0 1 1-7 0 3.5 3.5 0 0 1 7 0ZM29.5 24.5a5 5 0 1 1-10 0 5 5 0 0 1 10 0Zm-1.5 0a3.5 3.5 0 1 1-7 0 3.5 3.5 0 0 1 7 0Z" clip-rule="evenodd"/><path fill="#321B41" fill-rule="evenodd" d="M12 24.5a4.5 4.5 0 1 1-9 0 4.5 4.5 0 0 1 9 0ZM7.5 30a5.5 5.5 0 1 0 0-11 5.5 5.5 0 0 0 0 11ZM29 24.5a4.5 4.5 0 1 1-9 0 4.5 4.5 0 0 1 9 0ZM24.5 30a5.5 5.5 0 1 0 0-11 5.5 5.5 0 0 0 0 11Z" clip-rule="evenodd"/><path fill="#D3D3D3" d="M14 9.5a.5.5 0 0 0-.5-.5h-2a2.5 2.5 0 0 0 0 5h.164l-.636 1.264a.528.528 0 0 0 .944.472L12.845 14h.655a.5.5 0 0 0 0-1h-2a1.5 1.5 0 0 1 0-3h2a.5.5 0 0 0 .5-.5Zm6.104 3.982a.528.528 0 0 1 .413.622l-.5 2.5a.528.528 0 0 1-1.034-.207l.5-2.5a.528.528 0 0 1 .62-.415Z"/><path fill="#F92F60" d="M12.03 15.736a.58.58 0 0 0-1.06-.472l-4 9a.58.58 0 0 0 1.06.472l2.613-5.878 6.994 5.595a.58.58 0 0 0 .935-.352l1.22-6.918 4.274 7.485a.58.58 0 1 0 1.008-.576l-5.07-8.88a.58.58 0 0 0-1.076.187l-1.33 7.537-6.468-5.175.9-2.025Z"/><path fill="#F9C23C" d="m25.096 23.401-6.871-1.383C17.05 21.858 16 22.79 16 24s1.04 2.141 2.225 1.982l6.87-.482c.52-.074.905-.52.905-1.05s-.395-.985-.904-1.049Z"/><path fill="#9D5044" d="M18 13a1 1 0 0 1 1-1h2a1 1 0 1 1 0 2h-2a1 1 0 0 1-1-1Z"/><path fill="#533566" d="M12 9.5a.5.5 0 0 1 .5-.5h2a.5.5 0 0 1 0 1h-2a.5.5 0 0 1-.5-.5Z"/><path fill="#F4F4F4" d="M18 25a1 1 0 1 0 0-2 1 1 0 0 0 0 2Z"/></svg>
